X:1
T:Title
%%score ( 1 2 ) { ( 3 5 6 ) | 4 }
L:1/8
Q:1/4=100
M:4/4
K:C
V:1 treble nm="Grand Piano, Piano"
V:2 treble 
V:3 bass nm="Grand Piano, Piano"
V:5 bass 
V:6 bass 
V:4 bass 
V:1
 [Ec]8 | [CG]4 [B,F]4 | [CE]8 | [CE]8 | D4 [DG]4 | G4- [^FG-]4 | [DG]8 | [CG]8 | [CA]4 [FB]4 | %9
w: 1.~O~come,~let~us~sing~|unto~ the~|Lord;~|let~us~heartily~rejoice~in~the~|(1)~strength~ of~|our~ sal|vation.~|2.~Let~us~come~before~his~presence~with~|thanks~ *|
 [Ec]8 | [CA]8 | [CG]4 [DF]2 [CE]2 | [CE]6 z2 | C8 |] %14
w: giving;~|(2)~and~show~ourselves~|glad~ in~ *|him~|psalms.~|
V:2
 x8 | x8 | x8 | x8 | x8 | D8 | x8 | x8 | x8 | x8 | x8 | x8 | z4 [B,D]4 | x8 |] %14
w: ||||||||||||with~||
V:3
 G,8 | G,8 | G,8 | G,8 | G,4 B,4 | B,4 A,4 | B,8 | G,8 | F,8 | G,8 | F,8 | G,4 A,4 | G,6 z2 | %13
 E,8 |] %14
V:4
 C,8 | E,4 z4 | C,8 | C,8 | B,,4 G,,4 | D,8 | G,,8 | E,8 | z8 | C,8 | z8 | E,4 F,4 | z8 | C,8 |] %14
V:5
 x8 | z4 D,4 | x8 | x8 | x8 | x8 | x8 | x8 | z4 D,4 | x8 | x8 | x8 | z4 z2 F,2 | x8 |] %14
V:6
 x8 | x8 | x8 | x8 | x8 | x8 | x8 | x8 | x8 | x8 | x8 | x8 | z4 G,,4 | x8 |] %14

